src/icons/svg/github.svg

<svg class="icon" viewBox="0 0 1024 1024" xmlns="http://www.w3.org/2000/svg" width="200" height="200"><defs><style/></defs><path d="M0 556.416c0 46.4 4.352 88.384 13.024 125.92 8.672 37.568 20.704 70.208 36.064 97.888 15.328 27.712 34.88 52.096 58.56 73.12 23.712 21.024 49.408 38.208 77.12 51.584 27.712 13.344 59.328 24.192 94.88 32.544 35.552 8.352 71.872 14.176 108.928 17.536 37.056 3.328 77.76 4.992 122.176 4.992 44.736 0 85.632-1.664 122.688-4.992 37.056-3.36 73.44-9.184 109.152-17.536 35.712-8.352 67.52-19.2 95.392-32.544 27.872-13.376 53.728-30.56 77.6-51.584 23.872-21.024 43.584-45.408 59.104-73.12 15.52-27.68 27.616-60.32 36.288-97.888 8.672-37.536 13.024-79.52 13.024-125.92 0-82.784-27.712-154.4-83.104-214.816 2.976-8.032 5.728-17.12 8.256-27.296 2.496-10.176 4.832-24.704 7.008-43.552 2.176-18.88 1.344-40.64-2.496-65.344-3.84-24.704-10.944-49.92-21.312-75.616l-7.488-1.504c-5.344-.992-14.112-.768-26.304.736-12.192 1.504-26.368 4.512-42.56 9.024-16.192 4.512-37.056 13.184-62.592 26.048-25.536 12.832-52.48 28.96-80.864 48.32-48.736-13.376-115.68-20.032-200.8-20.032-84.8 0-151.552 6.656-200.288 20.032-28.384-19.36-55.488-35.488-81.376-48.32-25.856-12.864-46.464-21.536-61.824-26.048-15.36-4.512-29.728-7.424-43.072-8.768-13.344-1.344-21.792-1.76-25.28-1.248-3.52.512-6.272 1.088-8.256 1.76-10.368 25.696-17.472 50.88-21.28 75.616-3.84 24.704-4.672 46.464-2.528 65.344 2.176 18.848 4.512 33.376 7.008 43.552 2.528 10.176 5.28 19.264 8.288 27.296C27.712 402.016 0 473.632 0 556.416zM125.696 682.08c0-48.064 21.856-92.128 65.6-132.192 12.992-12 28.192-21.088 45.536-27.296 17.376-6.144 36.992-9.664 58.848-10.496 21.856-.832 42.816-.672 62.848.512 20.032 1.152 44.736 2.752 74.112 4.736 29.376 2.016 54.752 3.008 76.096 3.008 21.376 0 46.752-.992 76.128-3.008 29.376-1.984 54.08-3.584 74.112-4.736 20.032-1.184 40.96-1.344 62.816-.512 21.888.832 41.504 4.352 58.848 10.496 17.376 6.176 32.544 15.296 45.568 27.296 43.744 39.392 65.6 83.456 65.6 132.192 0 28.736-3.584 54.176-10.784 76.384-7.168 22.208-16.352 40.8-27.52 55.84-11.2 15.008-26.72 27.776-46.56 38.304-19.872 10.496-39.232 18.592-58.112 24.288-18.848 5.664-43.04 10.08-72.608 13.248-29.536 3.168-55.904 5.088-79.104 5.76-23.2.672-52.672 1.024-88.384 1.024s-65.184-.352-88.384-1.024c-23.2-.672-49.568-2.592-79.104-5.76-29.536-3.168-53.728-7.584-72.608-13.248-18.848-5.696-38.208-13.792-58.08-24.288-19.872-10.528-35.392-23.296-46.56-38.304-11.2-15.04-20.384-33.632-27.552-55.84-7.168-22.208-10.752-47.648-10.752-76.384zM640 672a2 3 2520 1 0 128 0 2 3 2520 1 0-128 0zm-384 0a2 3 2520 1 0 128 0 2 3 2520 1 0-128 0z"/></svg>

<?xml version="1.0" standalone="no"?><!DOCTYPE svg PUBLIC "-//W3C//DTD SVG 1.1//EN" "http://www.w3.org/Graphics/SVG/1.1/DTD/svg11.dtd"><svg t="1573488547432" class="icon" viewBox="0 0 1024 1024" version="1.1" xmlns="http://www.w3.org/2000/svg" p-id="8896" xmlns:xlink="http://www.w3.org/1999/xlink" width="200" height="200"><defs><style type="text/css"></style></defs><path d="M0 556.416C0 602.816 4.352 644.8 13.024 682.336 21.696 719.904 33.728 752.544 49.088 780.224 64.416 807.936 83.968 832.32 107.648 853.344 131.36 874.368 157.056 891.552 184.768 904.928 212.48 918.272 244.096 929.12 279.648 937.472 315.2 945.824 351.52 951.648 388.576 955.008 425.632 958.336 466.336 960 510.752 960 555.488 960 596.384 958.336 633.44 955.008 670.496 951.648 706.88 945.824 742.592 937.472 778.304 929.12 810.112 918.272 837.984 904.928 865.856 891.552 891.712 874.368 915.584 853.344 939.456 832.32 959.168 807.936 974.688 780.224 990.208 752.544 1002.304 719.904 1010.976 682.336 1019.648 644.8 1024 602.816 1024 556.416 1024 473.632 996.288 402.016 940.896 341.6 943.872 333.568 946.624 324.48 949.152 314.304 951.648 304.128 953.984 289.6 956.16 270.752 958.336 251.872 957.504 230.112 953.664 205.408 949.824 180.704 942.72 155.488 932.352 129.792L924.864 128.288C919.52 127.296 910.752 127.52 898.56 129.024 886.368 130.528 872.192 133.536 856 138.048 839.808 142.56 818.944 151.232 793.408 164.096 767.872 176.928 740.928 193.056 712.544 212.416 663.808 199.04 596.864 192.384 511.744 192.384 426.944 192.384 360.192 199.04 311.456 212.416 283.072 193.056 255.968 176.928 230.08 164.096 204.224 151.232 183.616 142.56 168.256 138.048 152.896 133.536 138.528 130.624 125.184 129.28 111.84 127.936 103.392 127.52 99.904 128.032 96.384 128.544 93.632 129.12 91.648 129.792 81.28 155.488 74.176 180.672 70.368 205.408 66.528 230.112 65.696 251.872 67.84 270.752 70.016 289.6 72.352 304.128 74.848 314.304 77.376 324.48 80.128 333.568 83.136 341.6 27.712 402.016 0 473.632 0 556.416ZM125.696 682.08C125.696 634.016 147.552 589.952 191.296 549.888 204.288 537.888 219.488 528.8 236.832 522.592 254.208 516.448 273.824 512.928 295.68 512.096 317.536 511.264 338.496 511.424 358.528 512.608 378.56 513.76 403.264 515.36 432.64 517.344 462.016 519.36 487.392 520.352 508.736 520.352 530.112 520.352 555.488 519.36 584.864 517.344 614.24 515.36 638.944 513.76 658.976 512.608 679.008 511.424 699.936 511.264 721.792 512.096 743.68 512.928 763.296 516.448 780.64 522.592 798.016 528.768 813.184 537.888 826.208 549.888 869.952 589.28 891.808 633.344 891.808 682.08 891.808 710.816 888.224 736.256 881.024 758.464 873.856 780.672 864.672 799.264 853.504 814.304 842.304 829.312 826.784 842.08 806.944 852.608 787.072 863.104 767.712 871.2 748.832 876.896 729.984 882.56 705.792 886.976 676.224 890.144 646.688 893.312 620.32 895.232 597.12 895.904 573.92 896.576 544.448 896.928 508.736 896.928 473.024 896.928 443.552 896.576 420.352 895.904 397.152 895.232 370.784 893.312 341.248 890.144 311.712 886.976 287.52 882.56 268.64 876.896 249.792 871.2 230.432 863.104 210.56 852.608 190.688 842.08 175.168 829.312 164 814.304 152.8 799.264 143.616 780.672 136.448 758.464 129.28 736.256 125.696 710.816 125.696 682.08ZM640 672A2 3 2520 1 0 768 672 2 3 2520 1 0 640 672zM256 672A2 3 2520 1 0 384 672 2 3 2520 1 0 256 672z" p-id="8897"></path></svg>
